actions/24/view-file-columns.svg

<svg xmlns="http://www.w3.org/2000/svg" viewBox="0 0 24 24" width="24" height="24">
  <defs id="defs3051">
    <style type="text/css" id="current-color-scheme">.ColorScheme-Text {color:#fcfcfc;}</style>
  </defs>
  <g transform="translate(1,1)">
    <path style="fill:currentColor;fill-opacity:1;stroke:none" d="m 3,5 c 0,2 0,10 0,12 0,2 2,2 2,2 H 8 V 3 H 5 C 5,3 3,3 3,5 Z M 9,3 v 16 h 5 V 3 Z m 6,0 v 16 h 3 c 0,0 2,0 2,-2 C 20,15 20,7 20,5 20,3 18,3 18,3 Z m -5,1 h 3 v 14 h -3 z" class="ColorScheme-Text"/>
  </g>
</svg>

<svg xmlns="http://www.w3.org/2000/svg" viewBox="0 0 24 24" width="24" height="24">
  <defs id="defs3051">
    <style type="text/css" id="current-color-scheme">
      .ColorScheme-Text {
        color:#eff0f1;
      }
      </style>
  </defs>
  <g transform="translate(1,1)">
    <path style="fill:currentColor;fill-opacity:1;stroke:none" d="M 3 3 L 3 19 L 8 19 L 8 3 L 3 3 z M 9 3 L 9 19 L 14 19 L 14 3 L 9 3 z M 15 3 L 15 19 L 20 19 L 20 3 L 15 3 z M 10 4 L 13 4 L 13 18 L 10 18 L 10 4 z " class="ColorScheme-Text"/>
  </g>
</svg>
